docs/.gitbook/assets/icon-bug-16@light.svg

<svg width="32" height="32" viewBox="0 0 16 16" fill="none" xmlns="http://www.w3.org/2000/svg">
<rect x="0" y="0" width="16" height="16" fill="#fff"/>
<path fill-rule="evenodd" clip-rule="evenodd" d="M5.61499 4.00232C4.94105 4.99341 4.5 6.40455 4.5 8C4.5 8.83067 4.61968 9.61299 4.83041 10.3125C5.577 9.59072 6.64134 9 8 9C9.35866 9 10.423 9.59072 11.1696 10.3125C11.3803 9.61299 11.5 8.83067 11.5 8C11.5 6.40455 11.059 4.99341 10.385 4.00232C9.70837 3.00726 8.85173 2.5 8 2.5C7.14827 2.5 6.29163 3.00726 5.61499 4.00232ZM10.504 11.8149C9.98497 11.1264 9.12764 10.5 8 10.5C6.87236 10.5 6.01503 11.1264 5.49595 11.8149C6.18196 12.9241 7.09822 13.5 8 13.5C8.90178 13.5 9.81804 12.9241 10.504 11.8149ZM4.3746 3.15885C5.23616 1.89186 6.50452 1 8 1C9.49548 1 10.7638 1.89186 11.6254 3.15885C12.2389 4.06101 12.674 5.18632 12.8749 6.42734C13.2414 6.27902 13.5 5.91971 13.5 5.5V3.75C13.5 3.33579 13.8358 3 14.25 3C14.6642 3 15 3.33579 15 3.75V5.5C15 6.70952 14.1411 7.71843 12.9999 7.95001C13 7.96666 13 7.98333 13 8C13 8.35258 12.9816 8.6998 12.9459 9.03966C14.1139 9.24995 15 10.2715 15 11.5V13.25C15 13.6642 14.6642 14 14.25 14C13.8358 14 13.5 13.6642 13.5 13.25V11.5C13.5 11.0063 13.1423 10.5962 12.6719 10.5147C12.515 11.0922 12.305 11.6344 12.0489 12.1288C11.1979 13.7716 9.76149 15 8 15C6.23851 15 4.80207 13.7716 3.95113 12.1288C3.69503 11.6344 3.48505 11.0922 3.32814 10.5147C2.85775 10.5962 2.5 11.0063 2.5 11.5V13.25C2.5 13.6642 2.16421 14 1.75 14C1.33579 14 1 13.6642 1 13.25V11.5C1 10.2715 1.88612 9.24995 3.05407 9.03966C3.0184 8.6998 3 8.35258 3 8C3 7.98333 3.00004 7.96666 3.00012 7.95001C1.85894 7.71843 1 6.70952 1 5.5V3.75C1 3.33579 1.33579 3 1.75 3C2.16421 3 2.5 3.33579 2.5 3.75V5.5C2.5 5.91971 2.75857 6.27902 3.12509 6.42735C3.32598 5.18632 3.76113 4.06101 4.3746 3.15885Z" fill="#000"/>
</svg>

<svg xmlns="http://www.w3.org/2000/svg" width="32" height="32" fill="none" viewBox="0 0 16 16"><path fill="#fff" d="M0 0h16v16H0z"/><path fill="#000" fill-rule="evenodd" d="M5.615 4.002C4.941 4.993 4.5 6.405 4.5 8c0 .83.12 1.613.33 2.313C5.577 9.59 6.641 9 8 9s2.423.59 3.17 1.313c.21-.7.33-1.482.33-2.313 0-1.595-.441-3.007-1.115-3.998C9.708 3.007 8.852 2.5 8 2.5s-1.708.507-2.385 1.502m4.889 7.813C9.985 11.126 9.128 10.5 8 10.5s-1.985.626-2.504 1.315C6.182 12.925 7.098 13.5 8 13.5s1.818-.576 2.504-1.685m-6.13-8.656C5.237 1.892 6.505 1 8 1s2.764.892 3.625 2.159c.614.902 1.049 2.027 1.25 3.268A1 1 0 0 0 13.5 5.5V3.75a.75.75 0 0 1 1.5 0V5.5a2.5 2.5 0 0 1-2 2.45V8q0 .53-.054 1.04A2.5 2.5 0 0 1 15 11.5v1.75a.75.75 0 0 1-1.5 0V11.5a1 1 0 0 0-.828-.985 8 8 0 0 1-.623 1.614C11.198 13.772 9.76 15 8 15s-3.198-1.228-4.049-2.871a8 8 0 0 1-.623-1.614 1 1 0 0 0-.828.985v1.75a.75.75 0 0 1-1.5 0V11.5a2.5 2.5 0 0 1 2.054-2.46A10 10 0 0 1 3 7.95 2.5 2.5 0 0 1 1 5.5V3.75a.75.75 0 0 1 1.5 0V5.5a1 1 0 0 0 .625.927c.201-1.24.636-2.366 1.25-3.268" clip-rule="evenodd"/></svg>
